X:1
T:Pas d'te
T:Auvergne Polka
B:Massif Central Tune Book no 1 number 125
M:2/4
L:1/8
K:G
dd BB|GG EA/B/|cA AB/A/|G/F/G/A/ BG| \
dd BB|GG EA/B/|cA AB/A/|G/F/G/A/ G2:|
L:1/16
DGBG DFAF|DGBG DFAF|DFAB cBAG|FGAc B2G2| \
DGBG DFAF|DGBG DFAF|DFAB cBAG|FGAF G4:|
